symbols/web/person_pin/materialsymbolsoutlined/person_pin_wght100gradN25_20px.svg

<svg xmlns="http://www.w3.org/2000/svg" height="20" width="20"><path d="m10 17.5-2-2H4.958q-.541 0-.906-.365-.364-.364-.364-.906V4.125q0-.542.364-.906.365-.365.906-.365h10.084q.541 0 .916.365.375.364.375.906v10.104q0 .542-.375.906-.375.365-.916.365h-3.021Zm-5.708-3.188q1.125-1.062 2.573-1.687Q8.312 12 10 12q1.688 0 3.135.625 1.448.625 2.573 1.687V4.125q0-.25-.208-.458-.208-.209-.458-.209H4.958q-.25 0-.458.209-.208.208-.208.458ZM10 10.354q1 0 1.667-.666.666-.667.666-1.667t-.666-1.667Q11 5.688 10 5.688t-1.667.666q-.666.667-.666 1.667t.666 1.667q.667.666 1.667.666Zm0-.625q-.688 0-1.198-.5t-.51-1.208q0-.688.5-1.208.5-.521 1.208-.521.688 0 1.208.51.521.51.521 1.219 0 .687-.51 1.198-.511.51-1.219.51Zm0 6.896 1.771-1.75h3.458v-.125q-1.146-1.062-2.479-1.594-1.333-.531-2.75-.531-1.396 0-2.729.521-1.333.521-2.479 1.583v.146H8.25Zm0-7.729Z"/></svg>

<svg xmlns="http://www.w3.org/2000/svg" height="20" width="20"><path d="M10 17.5 8 15.5H4.958Q4.417 15.5 4.052 15.135Q3.688 14.771 3.688 14.229V4.125Q3.688 3.583 4.052 3.219Q4.417 2.854 4.958 2.854H15.042Q15.583 2.854 15.958 3.219Q16.333 3.583 16.333 4.125V14.229Q16.333 14.771 15.958 15.135Q15.583 15.5 15.042 15.5H12.021ZM4.292 14.312Q5.417 13.25 6.865 12.625Q8.312 12 10 12Q11.688 12 13.135 12.625Q14.583 13.25 15.708 14.312V4.125Q15.708 3.875 15.5 3.667Q15.292 3.458 15.042 3.458H4.958Q4.708 3.458 4.5 3.667Q4.292 3.875 4.292 4.125ZM10 10.354Q11 10.354 11.667 9.688Q12.333 9.021 12.333 8.021Q12.333 7.021 11.667 6.354Q11 5.688 10 5.688Q9 5.688 8.333 6.354Q7.667 7.021 7.667 8.021Q7.667 9.021 8.333 9.688Q9 10.354 10 10.354ZM10 9.729Q9.312 9.729 8.802 9.229Q8.292 8.729 8.292 8.021Q8.292 7.333 8.792 6.813Q9.292 6.292 10 6.292Q10.688 6.292 11.208 6.802Q11.729 7.312 11.729 8.021Q11.729 8.708 11.219 9.219Q10.708 9.729 10 9.729ZM10 16.625 11.771 14.875H15.229Q15.229 14.833 15.229 14.812Q15.229 14.792 15.229 14.75Q14.083 13.688 12.75 13.156Q11.417 12.625 10 12.625Q8.604 12.625 7.271 13.146Q5.938 13.667 4.792 14.729Q4.792 14.771 4.792 14.802Q4.792 14.833 4.792 14.875H8.25ZM10 8.896Q10 8.896 10 8.896Q10 8.896 10 8.896Q10 8.896 10 8.896Q10 8.896 10 8.896Q10 8.896 10 8.896Q10 8.896 10 8.896Q10 8.896 10 8.896Q10 8.896 10 8.896Z"/></svg>
